src/assets/icons/logo_.svg

<svg xmlns="http://www.w3.org/2000/svg" fill="none" viewBox="0 0 260 55"><defs/><path fill="#0D1442" d="M64.032 1.35199H78.76c2.0533 0 3.9946.18667 5.824.56 1.8293.37334 3.416 1.02667 4.76 1.96 1.3813.896 2.464 2.128 3.248 3.696.8213 1.53067 1.232 3.47201 1.232 5.82401 0 2.3147-.3733 4.256-1.12 5.824-.7467 1.568-1.7733 2.8187-3.08 3.752-1.3067.9333-2.856 1.6053-4.648 2.016-1.792.3733-3.7334.56-5.824.56h-6.384V41h-8.736V1.35199zM72.768 18.152h5.824c.784 0 1.5307-.0747 2.24-.224.7467-.1493 1.4-.392 1.96-.728.5973-.3733 1.064-.8587 1.4-1.456.3733-.6347.56-1.4187.56-2.352 0-1.008-.2427-1.8107-.728-2.408-.448-.6347-1.0453-1.12001-1.792-1.45601-.7093-.336-1.512-.54133-2.408-.616-.896-.112-1.7547-.168-2.576-.168h-4.48V18.152zM94.9934 13.784h8.3996V41h-8.3996V13.784zm-.672-8.56801c0-1.344.4667-2.48266 1.4-3.416.9707-.970663 2.128-1.455996 3.472-1.455996 1.3436 0 2.4826.485333 3.4156 1.455996.971.93334 1.456 2.072 1.456 3.416 0 1.344-.485 2.50134-1.456 3.472-.933.93334-2.072 1.40001-3.4156 1.40001-1.344 0-2.5013-.46667-3.472-1.40001-.9333-.97066-1.4-2.128-1.4-3.472zM134.628 38.704c0 5.152-1.306 9.0533-3.92 11.704-2.576 2.688-6.514 4.032-11.816 4.032-2.426 0-4.816-.28-7.168-.84-2.352-.5227-4.517-1.568-6.496-3.136l4.648-6.944c1.307 1.0827 2.67 1.9413 4.088 2.576 1.456.6347 3.043.952 4.76.952 2.576 0 4.462-.6347 5.656-1.904 1.232-1.232 1.848-2.8187 1.848-4.76v-2.632h-.112c-.97 1.3067-2.184 2.24-3.64 2.8-1.418.5227-2.762.784-4.032.784-2.016 0-3.845-.336-5.488-1.008-1.642-.7093-3.061-1.68-4.256-2.912-1.157-1.2693-2.053-2.7627-2.688-4.48-.634-1.7173-.952-3.6027-.952-5.656 0-1.792.28-3.5467.84-5.264.598-1.7173 1.419-3.2293 2.464-4.536 1.083-1.3067 2.39-2.352 3.92-3.136 1.531-.8213 3.267-1.232 5.208-1.232 1.195 0 2.278.1307 3.248.392 1.008.2613 1.904.5973 2.688 1.008.784.4107 1.456.8773 2.016 1.4.56.4853 1.008.9707 1.344 1.456h.112v-3.584h7.728v24.92zm-21.168-11.48c0 .896.168 1.7547.504 2.576.336.784.803 1.4933 1.4 2.128.635.5973 1.344 1.0827 2.128 1.456.822.3733 1.718.56 2.688.56.934 0 1.811-.1867 2.632-.56.822-.3733 1.531-.8587 2.128-1.456.635-.6347 1.12-1.344 1.456-2.128.336-.8213.504-1.68.504-2.576 0-.896-.168-1.736-.504-2.52-.336-.8213-.821-1.5307-1.456-2.128-.597-.6347-1.306-1.1387-2.128-1.512-.821-.3733-1.698-.56-2.632-.56-.97 0-1.866.1867-2.688.56-.784.3733-1.493.8773-2.128 1.512-.597.5973-1.064 1.3067-1.4 2.128-.336.784-.504 1.624-.504 2.52zM137.982 13.784h8.064v3.696h.112c.261-.5227.634-1.0453 1.12-1.568.485-.5227 1.064-.9893 1.736-1.4.672-.4107 1.437-.7467 2.296-1.008.858-.2613 1.792-.392 2.8-.392 1.904 0 3.584.392 5.04 1.176 1.493.784 2.613 2.016 3.36 3.696.97-1.7547 2.146-3.0053 3.528-3.752 1.381-.7467 3.08-1.12 5.096-1.12 1.829 0 3.36.3173 4.592.952 1.269.5973 2.258 1.4373 2.968 2.52.746 1.0453 1.269 2.296 1.568 3.752.336 1.4187.504 2.9493.504 4.592V41h-8.4V25.152c0-1.2693-.28-2.352-.84-3.248-.523-.9333-1.475-1.4-2.856-1.4-.971 0-1.792.168-2.464.504-.635.2987-1.158.728-1.568 1.288-.374.56-.654 1.2133-.84 1.96-.15.7467-.224 1.5307-.224 2.352V41h-8.4V26.608c0-.4853-.019-1.0827-.056-1.792-.038-.7093-.168-1.3813-.392-2.016s-.598-1.176-1.12-1.624c-.486-.448-1.214-.672-2.184-.672-1.083 0-1.96.2053-2.632.616-.672.3733-1.195.896-1.568 1.568-.336.6347-.56 1.3627-.672 2.184-.112.8213-.168 1.68-.168 2.576V41h-8.4V13.784zM209.108 36.296c-1.344 1.7173-3.042 3.0427-5.096 3.976-2.053.9333-4.181 1.4-6.384 1.4-2.09 0-4.069-.336-5.936-1.008-1.829-.672-3.434-1.624-4.816-2.856-1.344-1.2693-2.408-2.7813-3.192-4.536-.784-1.7547-1.176-3.7147-1.176-5.88s.392-4.1253 1.176-5.88c.784-1.7547 1.848-3.248 3.192-4.48 1.382-1.2693 2.987-2.24 4.816-2.912 1.867-.672 3.846-1.008 5.936-1.008 1.942 0 3.696.336 5.264 1.008 1.606.672 2.95 1.6427 4.032 2.912 1.12 1.232 1.979 2.7253 2.576 4.48.598 1.7547.896 3.7147.896 5.88v2.632h-19.488c.336 1.6053 1.064 2.8933 2.184 3.864 1.12.9333 2.502 1.4 4.144 1.4 1.382 0 2.539-.2987 3.472-.896.971-.6347 1.811-1.4373 2.52-2.408l5.88 4.312zm-7.112-11.984c.038-1.4187-.429-2.632-1.4-3.64-.97-1.008-2.221-1.512-3.752-1.512-.933 0-1.754.1493-2.464.448-.709.2987-1.325.6907-1.848 1.176-.485.448-.877.9893-1.176 1.624-.261.5973-.41 1.232-.448 1.904h11.088zM212.145 13.784h8.064v3.696h.112c.261-.5227.634-1.0453 1.12-1.568.485-.5227 1.064-.9893 1.736-1.4.672-.4107 1.437-.7467 2.296-1.008.858-.2613 1.792-.392 2.8-.392 2.128 0 3.845.336 5.152 1.008 1.306.6347 2.314 1.5307 3.024 2.688.746 1.1573 1.25 2.52 1.512 4.088.261 1.568.392 3.2667.392 5.096V41h-8.4V27.672c0-.784-.038-1.5867-.112-2.408-.038-.8587-.206-1.6427-.504-2.352-.262-.7093-.691-1.288-1.288-1.736-.56-.448-1.382-.672-2.464-.672-1.083 0-1.96.2053-2.632.616-.672.3733-1.195.896-1.568 1.568-.336.6347-.56 1.3627-.672 2.184-.112.8213-.168 1.68-.168 2.576V41h-8.4V13.784zM259.477 20.504h-7.392v9.072c0 .7467.037 1.4373.112 2.072.074.5973.242 1.12.504 1.568.261.448.653.8027 1.176 1.064.56.224 1.288.336 2.184.336.448 0 1.026-.0373 1.736-.112.746-.112 1.306-.336 1.68-.672v7c-.934.336-1.904.56-2.912.672-1.008.112-1.998.168-2.968.168-1.419 0-2.726-.1493-3.92-.448-1.195-.2987-2.24-.7653-3.136-1.4-.896-.672-1.606-1.5307-2.128-2.576-.486-1.0453-.728-2.3147-.728-3.808V20.504h-5.376v-6.72h5.376V5.71999h8.4V13.784h7.392v6.72z"/><path fill="url(#paint0_linear)" d="M49.1726.112671c1.6395 3.093509 2.6292 6.467179 2.9125 9.928429.2834 3.4612-.1452 6.9422-1.2611 10.2442-1.116 3.302-2.8975 6.3603-5.2429 9.0004-2.3454 2.6401-5.2087 4.8101-8.4264 6.3864-3.2178 1.5762-6.7269 2.5277-10.3272 2.8001-3.6002.2724-7.221-.1396-10.6556-1.2125-3.4346-1.0729-6.61571-2.7857-9.36181-5.0405C4.064 29.9644 1.80676 27.2116.167236 24.1181L49.1726.112671z"/><defs>
        <linearGradient id="paint0_linear" x1="10.9199" x2="34.5664" y1="-10.7808" y2="17.5118" gradientUnits="userSpaceOnUse"><stop stop-color="#1B21DD"/><stop offset="1" stop-color="#24348C"/></linearGradient>
    </defs>
</svg>

<svg width="260" height="55" viewBox="0 0 260 55" fill="none" xmlns="http://www.w3.org/2000/svg">
    <path d="M64.032 1.35199H78.76C80.8133 1.35199 82.7546 1.53866 84.584 1.91199C86.4133 2.28533 88 2.93866 89.344 3.87199C90.7253 4.76799 91.808 5.99999 92.592 7.56799C93.4133 9.09866 93.824 11.04 93.824 13.392C93.824 15.7067 93.4507 17.648 92.704 19.216C91.9573 20.784 90.9307 22.0347 89.624 22.968C88.3173 23.9013 86.768 24.5733 84.976 24.984C83.184 25.3573 81.2426 25.544 79.152 25.544H72.768V41H64.032V1.35199ZM72.768 18.152H78.592C79.376 18.152 80.1227 18.0773 80.832 17.928C81.5787 17.7787 82.232 17.536 82.792 17.2C83.3893 16.8267 83.856 16.3413 84.192 15.744C84.5653 15.1093 84.752 14.3253 84.752 13.392C84.752 12.384 84.5093 11.5813 84.024 10.984C83.576 10.3493 82.9787 9.86399 82.232 9.52799C81.5227 9.19199 80.72 8.98666 79.824 8.91199C78.928 8.79999 78.0693 8.74399 77.248 8.74399H72.768V18.152Z" fill="#0D1442"/>
    <path d="M94.9934 13.784H103.393V41H94.9934V13.784ZM94.3214 5.21599C94.3214 3.87199 94.7881 2.73333 95.7214 1.79999C96.6921 0.829327 97.8494 0.343994 99.1934 0.343994C100.537 0.343994 101.676 0.829327 102.609 1.79999C103.58 2.73333 104.065 3.87199 104.065 5.21599C104.065 6.55999 103.58 7.71733 102.609 8.68799C101.676 9.62133 100.537 10.088 99.1934 10.088C97.8494 10.088 96.6921 9.62133 95.7214 8.68799C94.7881 7.71733 94.3214 6.55999 94.3214 5.21599Z" fill="#0D1442"/>
    <path d="M134.628 38.704C134.628 43.856 133.322 47.7573 130.708 50.408C128.132 53.096 124.194 54.44 118.892 54.44C116.466 54.44 114.076 54.16 111.724 53.6C109.372 53.0773 107.207 52.032 105.228 50.464L109.876 43.52C111.183 44.6027 112.546 45.4613 113.964 46.096C115.42 46.7307 117.007 47.048 118.724 47.048C121.3 47.048 123.186 46.4133 124.38 45.144C125.612 43.912 126.228 42.3253 126.228 40.384V37.752H126.116C125.146 39.0587 123.932 39.992 122.476 40.552C121.058 41.0747 119.714 41.336 118.444 41.336C116.428 41.336 114.599 41 112.956 40.328C111.314 39.6187 109.895 38.648 108.7 37.416C107.543 36.1467 106.647 34.6533 106.012 32.936C105.378 31.2187 105.06 29.3333 105.06 27.28C105.06 25.488 105.34 23.7333 105.9 22.016C106.498 20.2987 107.319 18.7867 108.364 17.48C109.447 16.1733 110.754 15.128 112.284 14.344C113.815 13.5227 115.551 13.112 117.492 13.112C118.687 13.112 119.77 13.2427 120.74 13.504C121.748 13.7653 122.644 14.1013 123.428 14.512C124.212 14.9227 124.884 15.3893 125.444 15.912C126.004 16.3973 126.452 16.8827 126.788 17.368H126.9V13.784H134.628V38.704ZM113.46 27.224C113.46 28.12 113.628 28.9787 113.964 29.8C114.3 30.584 114.767 31.2933 115.364 31.928C115.999 32.5253 116.708 33.0107 117.492 33.384C118.314 33.7573 119.21 33.944 120.18 33.944C121.114 33.944 121.991 33.7573 122.812 33.384C123.634 33.0107 124.343 32.5253 124.94 31.928C125.575 31.2933 126.06 30.584 126.396 29.8C126.732 28.9787 126.9 28.12 126.9 27.224C126.9 26.328 126.732 25.488 126.396 24.704C126.06 23.8827 125.575 23.1733 124.94 22.576C124.343 21.9413 123.634 21.4373 122.812 21.064C121.991 20.6907 121.114 20.504 120.18 20.504C119.21 20.504 118.314 20.6907 117.492 21.064C116.708 21.4373 115.999 21.9413 115.364 22.576C114.767 23.1733 114.3 23.8827 113.964 24.704C113.628 25.488 113.46 26.328 113.46 27.224Z" fill="#0D1442"/>
    <path d="M137.982 13.784H146.046V17.48H146.158C146.419 16.9573 146.792 16.4347 147.278 15.912C147.763 15.3893 148.342 14.9227 149.014 14.512C149.686 14.1013 150.451 13.7653 151.31 13.504C152.168 13.2427 153.102 13.112 154.11 13.112C156.014 13.112 157.694 13.504 159.15 14.288C160.643 15.072 161.763 16.304 162.51 17.984C163.48 16.2293 164.656 14.9787 166.038 14.232C167.419 13.4853 169.118 13.112 171.134 13.112C172.963 13.112 174.494 13.4293 175.726 14.064C176.995 14.6613 177.984 15.5013 178.694 16.584C179.44 17.6293 179.963 18.88 180.262 20.336C180.598 21.7547 180.766 23.2853 180.766 24.928V41H172.366V25.152C172.366 23.8827 172.086 22.8 171.526 21.904C171.003 20.9707 170.051 20.504 168.67 20.504C167.699 20.504 166.878 20.672 166.206 21.008C165.571 21.3067 165.048 21.736 164.638 22.296C164.264 22.856 163.984 23.5093 163.798 24.256C163.648 25.0027 163.574 25.7867 163.574 26.608V41H155.174V26.608C155.174 26.1227 155.155 25.5253 155.118 24.816C155.08 24.1067 154.95 23.4347 154.726 22.8C154.502 22.1653 154.128 21.624 153.606 21.176C153.12 20.728 152.392 20.504 151.422 20.504C150.339 20.504 149.462 20.7093 148.79 21.12C148.118 21.4933 147.595 22.016 147.222 22.688C146.886 23.3227 146.662 24.0507 146.55 24.872C146.438 25.6933 146.382 26.552 146.382 27.448V41H137.982V13.784Z" fill="#0D1442"/>
    <path d="M209.108 36.296C207.764 38.0133 206.066 39.3387 204.012 40.272C201.959 41.2053 199.831 41.672 197.628 41.672C195.538 41.672 193.559 41.336 191.692 40.664C189.863 39.992 188.258 39.04 186.876 37.808C185.532 36.5387 184.468 35.0267 183.684 33.272C182.9 31.5173 182.508 29.5573 182.508 27.392C182.508 25.2267 182.9 23.2667 183.684 21.512C184.468 19.7573 185.532 18.264 186.876 17.032C188.258 15.7627 189.863 14.792 191.692 14.12C193.559 13.448 195.538 13.112 197.628 13.112C199.57 13.112 201.324 13.448 202.892 14.12C204.498 14.792 205.842 15.7627 206.924 17.032C208.044 18.264 208.903 19.7573 209.5 21.512C210.098 23.2667 210.396 25.2267 210.396 27.392V30.024H190.908C191.244 31.6293 191.972 32.9173 193.092 33.888C194.212 34.8213 195.594 35.288 197.236 35.288C198.618 35.288 199.775 34.9893 200.708 34.392C201.679 33.7573 202.519 32.9547 203.228 31.984L209.108 36.296ZM201.996 24.312C202.034 22.8933 201.567 21.68 200.596 20.672C199.626 19.664 198.375 19.16 196.844 19.16C195.911 19.16 195.09 19.3093 194.38 19.608C193.671 19.9067 193.055 20.2987 192.532 20.784C192.047 21.232 191.655 21.7733 191.356 22.408C191.095 23.0053 190.946 23.64 190.908 24.312H201.996Z" fill="#0D1442"/>
    <path d="M212.145 13.784H220.209V17.48H220.321C220.582 16.9573 220.955 16.4347 221.441 15.912C221.926 15.3893 222.505 14.9227 223.177 14.512C223.849 14.1013 224.614 13.7653 225.473 13.504C226.331 13.2427 227.265 13.112 228.273 13.112C230.401 13.112 232.118 13.448 233.425 14.12C234.731 14.7547 235.739 15.6507 236.449 16.808C237.195 17.9653 237.699 19.328 237.961 20.896C238.222 22.464 238.353 24.1627 238.353 25.992V41H229.953V27.672C229.953 26.888 229.915 26.0853 229.841 25.264C229.803 24.4053 229.635 23.6213 229.337 22.912C229.075 22.2027 228.646 21.624 228.049 21.176C227.489 20.728 226.667 20.504 225.585 20.504C224.502 20.504 223.625 20.7093 222.953 21.12C222.281 21.4933 221.758 22.016 221.385 22.688C221.049 23.3227 220.825 24.0507 220.713 24.872C220.601 25.6933 220.545 26.552 220.545 27.448V41H212.145V13.784Z" fill="#0D1442"/>
    <path d="M259.477 20.504H252.085V29.576C252.085 30.3227 252.122 31.0133 252.197 31.648C252.271 32.2453 252.439 32.768 252.701 33.216C252.962 33.664 253.354 34.0187 253.877 34.28C254.437 34.504 255.165 34.616 256.061 34.616C256.509 34.616 257.087 34.5787 257.797 34.504C258.543 34.392 259.103 34.168 259.477 33.832V40.832C258.543 41.168 257.573 41.392 256.565 41.504C255.557 41.616 254.567 41.672 253.597 41.672C252.178 41.672 250.871 41.5227 249.677 41.224C248.482 40.9253 247.437 40.4587 246.541 39.824C245.645 39.152 244.935 38.2933 244.413 37.248C243.927 36.2027 243.685 34.9333 243.685 33.44V20.504H238.309V13.784H243.685V5.71999H252.085V13.784H259.477V20.504Z" fill="#0D1442"/>
    <path d="M49.1726 0.112671C50.8121 3.20618 51.8018 6.57985 52.0851 10.0411C52.3685 13.5023 51.9399 16.9833 50.824 20.2853C49.708 23.5873 47.9265 26.6456 45.5811 29.2857C43.2357 31.9258 40.3724 34.0958 37.1547 35.6721C33.9369 37.2483 30.4278 38.1998 26.8275 38.4722C23.2273 38.7446 19.6065 38.3326 16.1719 37.2597C12.7373 36.1868 9.55619 34.474 6.81009 32.2192C4.064 29.9644 1.80676 27.2116 0.167236 24.1181L49.1726 0.112671Z" fill="url(#paint0_linear)"/>
    <defs>
        <linearGradient id="paint0_linear" x1="10.9199" y1="-10.7808" x2="34.5664" y2="17.5118" gradientUnits="userSpaceOnUse">
            <stop stop-color="#1B21DD"/>
            <stop offset="1" stop-color="#24348C"/>
        </linearGradient>
    </defs>
</svg>
